app/client/src/assets/icons/blueprintjs/20px/updated.svg

<svg xmlns="http://www.w3.org/2000/svg" width="20" height="20"><path fill-rule="evenodd" d="M10 0C6.71 0 3.82 1.6 2 4.05V2c0-.55-.45-1-1-1s-1 .45-1 1v4c0 .55.45 1 1 1h4c.55 0 1-.45 1-1s-.45-1-1-1H3.76C5.22 3.17 7.47 2 10 2c4.42 0 8 3.58 8 8s-3.58 8-8 8-8-3.58-8-8c0-.55-.45-1-1-1s-1 .45-1 1c0 5.52 4.48 10 10 10s10-4.48 10-10S15.52 0 10 0Zm4 7c-.28 0-.53.11-.71.29L9 11.58 6.71 9.29a1.003 1.003 0 0 0-1.42 1.42l3 3c.18.18.43.29.71.29.28 0 .53-.11.71-.29l5-5A1.003 1.003 0 0 0 14 7Z"/></svg>

<?xml version="1.0" encoding="UTF-8"?>
<svg width="20px" height="20px" viewBox="0 0 20 20" version="1.1" xmlns="http://www.w3.org/2000/svg" xmlns:xlink="http://www.w3.org/1999/xlink">
    <!-- Generator: Sketch 49.1 (51147) - http://www.bohemiancoding.com/sketch -->
    <title>Artboard 2 Copy 2</title>
    <desc>Created with Sketch.</desc>
    <defs></defs>
    <g id="Artboard-2-Copy-2" stroke="none" stroke-width="1" fill="none" fill-rule="evenodd">
        <path d="M10,0 C6.71,0 3.82,1.6 2,4.05 L2,2 C2,1.45 1.55,1 1,1 C0.45,1 0,1.45 0,2 L0,6 C0,6.55 0.45,7 1,7 L5,7 C5.55,7 6,6.55 6,6 C6,5.45 5.55,5 5,5 L3.76,5 C5.22,3.17 7.47,2 10,2 C14.42,2 18,5.58 18,10 C18,14.42 14.42,18 10,18 C5.58,18 2,14.42 2,10 C2,9.45 1.55,9 1,9 C0.45,9 0,9.45 0,10 C0,15.52 4.48,20 10,20 C15.52,20 20,15.52 20,10 C20,4.48 15.52,0 10,0 Z M14,7 C13.72,7 13.47,7.11 13.29,7.29 L9,11.58 L6.71,9.29 C6.53,9.11 6.28,9 6,9 C5.45,9 5,9.45 5,10 C5,10.28 5.11,10.53 5.29,10.71 L8.29,13.71 C8.47,13.89 8.72,14 9,14 C9.28,14 9.53,13.89 9.71,13.71 L14.71,8.71 C14.89,8.53 15,8.28 15,8 C15,7.45 14.55,7 14,7 Z" id="Shape" fill="#000000"></path>
    </g>
</svg>
